X: 35812
T: Saltarello De Phalese
R: polka
M: 2/4
K: Gmajor
GG AG|GD D2|GG AG|D2 D2:|
B2 B2|(A/B/c/B/) AG|B2 B2|(A/B/c/B/) AG|
cB G/G/A|G/F/G G2|G4:|

